images/indikatorenset/4153.svg

<?xml version="1.0" standalone="no"?><!DOCTYPE svg PUBLIC "-//W3C//DTD SVG 1.1//EN" "http://www.w3.org/Graphics/SVG/1.1/DTD/svg11.dtd"><svg xmlns:xlink="http://www.w3.org/1999/xlink" version="1.1" class="highcharts-root" style="font-family:Arial;font-size:12px;" xmlns="http://www.w3.org/2000/svg" width="485" height="415"><desc>Created with Highcharts 5.0.7</desc><defs><clipPath id="highcharts-l0nn3xb-1"><rect x="0" y="0" width="395" height="308" fill="none"></rect></clipPath></defs><rect fill="#fbfbfb" class="highcharts-background" x="0" y="0" width="485" height="415" rx="0" ry="0"></rect><rect fill="none" class="highcharts-plot-background" x="80" y="41" width="395" height="308"></rect><g class="highcharts-grid highcharts-xaxis-grid "><path fill="none" class="highcharts-grid-line" d="M 115.5 41 L 115.5 349" opacity="1"></path><path fill="none" class="highcharts-grid-line" d="M 151.5 41 L 151.5 349" opacity="1"></path><path fill="none" class="highcharts-grid-line" d="M 187.5 41 L 187.5 349" opacity="1"></path><path fill="none" class="highcharts-grid-line" d="M 223.5 41 L 223.5 349" opacity="1"></path><path fill="none" class="highcharts-grid-line" d="M 259.5 41 L 259.5 349" opacity="1"></path><path fill="none" class="highcharts-grid-line" d="M 294.5 41 L 294.5 349" opacity="1"></path><path fill="none" class="highcharts-grid-line" d="M 330.5 41 L 330.5 349" opacity="1"></path><path fill="none" class="highcharts-grid-line" d="M 366.5 41 L 366.5 349" opacity="1"></path><path fill="none" class="highcharts-grid-line" d="M 402.5 41 L 402.5 349" opacity="1"></path><path fill="none" class="highcharts-grid-line" d="M 438.5 41 L 438.5 349" opacity="1"></path><path fill="none" class="highcharts-grid-line" d="M 474.5 41 L 474.5 349" opacity="1"></path><path fill="none" class="highcharts-grid-line" d="M 79.5 41 L 79.5 349" opacity="1"></path></g><g class="highcharts-grid highcharts-yaxis-grid "><path fill="none" stroke="#e6e6e6" stroke-width="1" class="highcharts-grid-line" d="M 80 349.5 L 475 349.5" opacity="1"></path><path fill="none" stroke="#e6e6e6" stroke-width="1" class="highcharts-grid-line" d="M 80 287.5 L 475 287.5" opacity="1"></path><path fill="none" stroke="#e6e6e6" stroke-width="1" class="highcharts-grid-line" d="M 80 226.5 L 475 226.5" opacity="1"></path><path fill="none" stroke="#e6e6e6" stroke-width="1" class="highcharts-grid-line" d="M 80 164.5 L 475 164.5" opacity="1"></path><path fill="none" stroke="#e6e6e6" stroke-width="1" class="highcharts-grid-line" d="M 80 103.5 L 475 103.5" opacity="1"></path><path fill="none" stroke="#e6e6e6" stroke-width="1" class="highcharts-grid-line" d="M 80 41.5 L 475 41.5" opacity="1"></path></g><rect fill="none" class="highcharts-plot-border" x="80" y="41" width="395" height="308"></rect><g class="highcharts-axis highcharts-xaxis "><path fill="none" class="highcharts-axis-line" stroke="#ccd6eb" stroke-width="1" d="M 80 349.5 L 475 349.5"></path></g><g class="highcharts-axis highcharts-yaxis "><path fill="none" class="highcharts-axis-line" d="M 80 41 L 80 349"></path></g><g class="highcharts-series-group"><g class="highcharts-series highcharts-series-0 highcharts-line-series highcharts-color-undefined " transform="translate(80,41) scale(1 1)" clip-path="url(#highcharts-l0nn3xb-1)"><path fill="none" d="M 17.954545454545 280.299404 L 53.863636363636 284.8359052 L 89.772727272727 290.476186 L 125.68181818182 289.9896384 L 161.59090909091 248.3410468 L 197.5 212.07198319999998 L 233.40909090909 176.9755988 L 269.31818181818 148.42572359999997 L 305.22727272727 58.94442399999997 L 341.13636363636 33.44451879999997 L 377.04545454545 14.610749999999996" class="highcharts-graph" stroke="#923f8d" stroke-width="2" stroke-linejoin="round" stroke-linecap="round"></path><path fill="none" d="M 7.9545454545449985 280.299404 L 17.954545454545 280.299404 L 53.863636363636 284.8359052 L 89.772727272727 290.476186 L 125.68181818182 289.9896384 L 161.59090909091 248.3410468 L 197.5 212.07198319999998 L 233.40909090909 176.9755988 L 269.31818181818 148.42572359999997 L 305.22727272727 58.94442399999997 L 341.13636363636 33.44451879999997 L 377.04545454545 14.610749999999996 L 387.04545454545 14.610749999999996" stroke-linejoin="round" visibility="visible" stroke="rgba(192,192,192,0.0001)" stroke-width="22" class="highcharts-tracker"></path></g><g class="highcharts-markers highcharts-series-0 highcharts-line-series highcharts-color-undefined highcharts-tracker" transform="translate(80,41) scale(1 1)" clip-path="none"><path fill="#923f8d" d="M 21 280 A 4 4 0 1 1 20.99999800000017 279.99600000066664 Z" class="highcharts-point"></path><path fill="#923f8d" d="M 57 285 A 4 4 0 1 1 56.99999800000017 284.99600000066664 Z" class="highcharts-point"></path><path fill="#923f8d" d="M 93 290 A 4 4 0 1 1 92.99999800000016 289.99600000066664 Z" class="highcharts-point"></path><path fill="#923f8d" d="M 129 290 A 4 4 0 1 1 128.99999800000018 289.99600000066664 Z" class="highcharts-point"></path><path fill="#923f8d" d="M 165 248 A 4 4 0 1 1 164.99999800000018 247.99600000066667 Z" class="highcharts-point"></path><path fill="#923f8d" d="M 201 212 A 4 4 0 1 1 200.99999800000018 211.99600000066667 Z" class="highcharts-point"></path><path fill="#923f8d" d="M 237 177 A 4 4 0 1 1 236.99999800000018 176.99600000066667 Z" class="highcharts-point"></path><path fill="#923f8d" d="M 273 148 A 4 4 0 1 1 272.9999980000002 147.99600000066667 Z" class="highcharts-point"></path><path fill="#923f8d" d="M 309 59 A 4 4 0 1 1 308.9999980000002 58.99600000066666 Z" class="highcharts-point"></path><path fill="#923f8d" d="M 345 33 A 4 4 0 1 1 344.9999980000002 32.99600000066666 Z" class="highcharts-point"></path><path fill="#923f8d" d="M 381 15 A 4 4 0 1 1 380.9999980000002 14.996000000666664 Z" class="highcharts-point"></path></g></g><text x="10" text-anchor="start" class="highcharts-title" style="color:#000000;font-size:14px;font-weight:bold;fill:#000000;" y="21"><tspan>4.1.b Ausbezahlte Familienmietzinsbeiträge</tspan></text><g class="highcharts-data-labels highcharts-series-0 highcharts-line-series highcharts-color-undefined " transform="translate(80,41) scale(1 1)" opacity="1"><g class="highcharts-label highcharts-data-label highcharts-data-label-color-undefined " transform="translate(-5,257)"><text x="5" style="font-size:11px;font-weight:bold;color:#000000;text-outline:1px contrast;fill:#000000;" y="16"><tspan x="5" y="16" class="highcharts-text-outline" fill="#FFFFFF" stroke="#FFFFFF" stroke-width="2px" stroke-linejoin="round" style="">899 370</tspan><tspan x="5" y="16">899 370</tspan></text></g><g class="highcharts-label highcharts-data-label highcharts-data-label-color-undefined " transform="translate(341,15)"><text x="5" style="font-size:11px;font-weight:bold;color:#000000;text-outline:1px contrast;fill:#000000;" y="16"><tspan x="5" y="16" class="highcharts-text-outline" fill="#FFFFFF" stroke="#FFFFFF" stroke-width="2px" stroke-linejoin="round">9 525 625</tspan><tspan x="5" y="16">9 525 625</tspan></text></g></g><g class="highcharts-axis-labels highcharts-xaxis-labels "><text x="97.95454545454545" style="color:#000000;cursor:default;font-size:11px;fill:#000000;" text-anchor="middle" transform="translate(0,0)" y="368" opacity="1">2005</text><text x="133.86363636363637" style="color:#000000;cursor:default;font-size:11px;fill:#000000;" text-anchor="middle" transform="translate(0,0)" y="368" opacity="1">2006</text><text x="169.77272727272725" style="color:#000000;cursor:default;font-size:11px;fill:#000000;" text-anchor="middle" transform="translate(0,0)" y="368" opacity="1">2007</text><text x="205.6818181818182" style="color:#000000;cursor:default;font-size:11px;fill:#000000;" text-anchor="middle" transform="translate(0,0)" y="368" opacity="1">2008</text><text x="241.59090909090907" style="color:#000000;cursor:default;font-size:11px;fill:#000000;" text-anchor="middle" transform="translate(0,0)" y="368" opacity="1">2009</text><text x="277.5" style="color:#000000;cursor:default;font-size:11px;fill:#000000;" text-anchor="middle" transform="translate(0,0)" y="368" opacity="1">2010</text><text x="313.4090909090909" style="color:#000000;cursor:default;font-size:11px;fill:#000000;" text-anchor="middle" transform="translate(0,0)" y="368" opacity="1">2011</text><text x="349.3181818181818" style="color:#000000;cursor:default;font-size:11px;fill:#000000;" text-anchor="middle" transform="translate(0,0)" y="368" opacity="1">2012</text><text x="385.2272727272727" style="color:#000000;cursor:default;font-size:11px;fill:#000000;" text-anchor="middle" transform="translate(0,0)" y="368" opacity="1">2013</text><text x="421.1363636363636" style="color:#000000;cursor:default;font-size:11px;fill:#000000;" text-anchor="middle" transform="translate(0,0)" y="368" opacity="1">2014</text><text x="457.0454545454545" style="color:#000000;cursor:default;font-size:11px;fill:#000000;" text-anchor="middle" transform="translate(0,0)" y="368" opacity="1">2015</text></g><g class="highcharts-axis-labels highcharts-yaxis-labels "><text x="65" style="color:#000000;cursor:default;font-size:11px;fill:#000000;" text-anchor="end" transform="translate(0,0)" y="354" opacity="1"><tspan>0</tspan></text><text x="65" style="color:#000000;cursor:default;font-size:11px;fill:#000000;" text-anchor="end" transform="translate(0,0)" y="292" opacity="1"><tspan>2 000 000</tspan></text><text x="65" style="color:#000000;cursor:default;font-size:11px;fill:#000000;" text-anchor="end" transform="translate(0,0)" y="230" opacity="1"><tspan>4 000 000</tspan></text><text x="65" style="color:#000000;cursor:default;font-size:11px;fill:#000000;" text-anchor="end" transform="translate(0,0)" y="169" opacity="1"><tspan>6 000 000</tspan></text><text x="65" style="color:#000000;cursor:default;font-size:11px;fill:#000000;" text-anchor="end" transform="translate(0,0)" y="107" opacity="1"><tspan>8 000 000</tspan></text><text x="65" style="color:#000000;cursor:default;font-size:11px;fill:#000000;" text-anchor="end" transform="translate(0,0)" y="45" opacity="1"><tspan>10 000 000</tspan></text></g><text x="10" class="highcharts-credits" text-anchor="start" style="cursor:default;color:#000000;font-size:10px;fill:#000000;" y="400"><tspan>Quelle: Statistisches Amt Basel-Stadt, Amt für Sozialbeiträge Basel-Stadt</tspan></text></svg>

<svg class="highcharts-root" xmlns="http://www.w3.org/2000/svg" viewBox="0 0 485 415" font-family="Arial" font-size="12">
    <defs>
        <clipPath id="a">
            <path fill="none" d="M0 0h395v308H0z"/>
        </clipPath>
    </defs>
    <rect fill="#fbfbfb" class="highcharts-background" width="485" height="415" rx="0" ry="0"/>
    <path fill="none" class="highcharts-plot-background" d="M80 41h395v308H80z"/>
    <g class="highcharts-grid highcharts-xaxis-grid">
        <path fill="none" class="highcharts-grid-line" d="M115.5 41v308m36-308v308m36-308v308m36-308v308m36-308v308m35-308v308m36-308v308m36-308v308m36-308v308m36-308v308m36-308v308M79.5 41v308"/>
    </g>
    <g class="highcharts-grid highcharts-yaxis-grid">
        <path fill="none" stroke="#e6e6e6" class="highcharts-grid-line" d="M80 349.5h395m-395-62h395m-395-61h395m-395-62h395m-395-61h395m-395-62h395"/>
    </g>
    <path fill="none" class="highcharts-plot-border" d="M80 41h395v308H80z"/>
    <g class="highcharts-axis highcharts-xaxis">
        <path fill="none" class="highcharts-axis-line" stroke="#ccd6eb" d="M80 349.5h395"/>
    </g>
    <g class="highcharts-axis highcharts-yaxis">
        <path fill="none" class="highcharts-axis-line" d="M80 41v308"/>
    </g>
    <g class="highcharts-series-group">
        <g class="highcharts-series highcharts-series-0 highcharts-line-series highcharts-color-undefined" transform="translate(80 41)" clip-path="url(#a)">
            <path fill="none" d="M17.955 280.3l35.909 4.536 35.909 5.64 35.909-.486 35.909-41.649 35.909-36.269 35.91-35.096 35.908-28.55 35.91-89.482 35.908-25.5 35.91-18.833" class="highcharts-graph" stroke="#923f8d" stroke-width="2" stroke-linejoin="round" stroke-linecap="round"/>
            <path fill="none" d="M7.955 280.3h10l35.909 4.536 35.909 5.64 35.909-.486 35.909-41.649 35.909-36.269 35.91-35.096 35.908-28.55 35.91-89.482 35.908-25.5 35.91-18.833h10" stroke-linejoin="round" stroke="rgba(192,192,192,0.0001)" stroke-width="22" class="highcharts-tracker"/>
        </g>
        <g class="highcharts-markers highcharts-series-0 highcharts-line-series highcharts-color-undefined highcharts-tracker">
            <path fill="#923f8d" d="M101 321a4 4 0 1 1 0-.004zm36 5a4 4 0 1 1 0-.004zm36 5a4 4 0 1 1 0-.004zm36 0a4 4 0 1 1 0-.004zm36-42a4 4 0 1 1 0-.004zm36-36a4 4 0 1 1 0-.004zm36-35a4 4 0 1 1 0-.004zm36-29a4 4 0 1 1 0-.004zm36-89a4 4 0 1 1 0-.004zm36-26a4 4 0 1 1 0-.004zm36-18a4 4 0 1 1 0-.004z" class="highcharts-point"/>
        </g>
    </g>
    <text x="10" class="highcharts-title" y="21" color="#000" font-size="14" font-weight="700">
        <tspan>4.1.b Ausbezahlte Familienmietzinsbeiträge</tspan>
    </text>
    <g class="highcharts-data-labels highcharts-series-0 highcharts-line-series highcharts-color-undefined">
        <text x="5" style="text-outline:1px contrast" y="16" font-size="11" font-weight="700" color="#000" transform="translate(75 298)" class="highcharts-label highcharts-data-label highcharts-data-label-color-undefined">
            <tspan x="5" y="16" class="highcharts-text-outline" fill="#FFF" stroke="#FFF" stroke-width="2" stroke-linejoin="round">899 370</tspan><tspan x="5" y="16">899 370</tspan>
        </text>
        <text x="5" style="text-outline:1px contrast" y="16" font-size="11" font-weight="700" color="#000" transform="translate(421 56)" class="highcharts-label highcharts-data-label highcharts-data-label-color-undefined">
            <tspan x="5" y="16" class="highcharts-text-outline" fill="#FFF" stroke="#FFF" stroke-width="2" stroke-linejoin="round">9 525 625</tspan><tspan x="5" y="16">9 525 625</tspan>
        </text>
    </g>
    <g class="highcharts-axis-labels highcharts-xaxis-labels" text-anchor="middle" color="#000" cursor="default" font-size="11">
        <text x="97.955" y="368">
            2005
        </text>
        <text x="133.864" y="368">
            2006
        </text>
        <text x="169.773" y="368">
            2007
        </text>
        <text x="205.682" y="368">
            2008
        </text>
        <text x="241.591" y="368">
            2009
        </text>
        <text x="277.5" y="368">
            2010
        </text>
        <text x="313.409" y="368">
            2011
        </text>
        <text x="349.318" y="368">
            2012
        </text>
        <text x="385.227" y="368">
            2013
        </text>
        <text x="421.136" y="368">
            2014
        </text>
        <text x="457.045" y="368">
            2015
        </text>
    </g>
    <g class="highcharts-axis-labels highcharts-yaxis-labels" text-anchor="end" color="#000" cursor="default" font-size="11">
        <text x="65" y="354">
            <tspan>0</tspan>
        </text>
        <text x="65" y="292">
            <tspan>2 000 000</tspan>
        </text>
        <text x="65" y="230">
            <tspan>4 000 000</tspan>
        </text>
        <text x="65" y="169">
            <tspan>6 000 000</tspan>
        </text>
        <text x="65" y="107">
            <tspan>8 000 000</tspan>
        </text>
        <text x="65" y="45">
            <tspan>10 000 000</tspan>
        </text>
    </g>
    <text x="10" class="highcharts-credits" y="400" cursor="default" color="#000" font-size="10">
        <tspan>Quelle: Statistisches Amt Basel-Stadt, Amt für Sozialbeiträge Basel-Stadt</tspan>
    </text>
</svg>
